!!!OTL: Der Jaeger und die schwarzbraune Hexe. / Vierte Weise.
!!!OTL-incipit: ES BLIES EIN JAEGER
!!!COM: Volksweise
!!!ARE: Europa, Mitteleuropa, Deutschland
!!!SCT: F0661B
!!!TXL: @@DE
!!!YEM: Copyright 1995, estate of Helmut Schaffrath.
**kern	**text
*ICvox	*
*clefG2	*
*M4/4	*
*met(c)	*
*k[f#c#g#]	*
*A:	*
!LO:TX:a:t=P:only the highest voice encoded:problem	!
{4e	1._Es
=1	=1
4a	blies
4a	ein
8a	Jä-
8b/	-ger
4cc#/	wol
=2	=2
8cc#/L	in
8bJ	.
4a	ſein
2b/}	Horn,
=3	=3
{8b/	al-
8b/	-le
8b/	Wei-
8b/	-le
4b/	bei
8a/L	der
8bJ	.
=4	=4
2cc#/	Nacht,
4r}	.
{8aL	und
8bJ	.
=5	=5
8cc#/	Al-
8cc#/	-les,
8cc#/	was
8cc#/	er
4ee	blies,
4cc#/	das
=6	=6
8bL	war
8aJ	.
8b/L	ver-
8cc#J	.
2dd}	-lor'n,
=7	=7
{4.cc#	al-
8dd	-le
4cc#	Weil
4a	und
=8	=8
4.b/	al-
8cc#/	-le
4b/}	Weil,
{4ee	und
=9	=9
8cc#/	al-
8cc#/	-le
8cc#/	Wei-
8cc#/	-le
(8cc#/L	bei
8bJ)	.
4b/	der
=10	=10
2a	Nacht.
4r}	.
==	==
!!!AGN: Staende -, Jaeger - Lied, Liebe, Tod
!!!ONB: ESAC (Essen Associative Code) Database: FINK
!!!AMT: simple quadruple
!!!AIN: vox
!!!EED: Helmut Schaffrath
!!!EEV: 1.0
!!!RDF**kern: > = above
!!!GTL: Soldaten- und Jaegerlieder
!!Text: Volkslied
!!!source: Musikalischer Hausschatz der Deutschen. Eine Sammlung von über 1000 Liedern und Gesängen mit Singstimmen und Klavierbegleitung. Leipzig, Litterarisches Verlags-Haus.
!!!page: 435
!!!URL-scan: https://www.digitale-sammlungen.de/en/view/bsb11144622?page=402
!!!ENC: Anna Maria Matuszewska
!!!EEV: 2024/08/05
*-	*-